app/assets/images/icons/active/trophy.svg

<svg width="32" height="232" viewBox="0 0 32 232" xmlns="http://www.w3.org/2000/svg" xmlns:sketch="http://www.bohemiancoding.com/sketch/ns"><title>trophy</title><g sketch:type="MSPage" fill="none"><path d="M17.637 142.222c0-2.038 1.529-3.165 4.022-4.834 3.047-2.043 6.841-4.584 6.841-10.618 0-.541-.441-.98-.984-.98h-4.764c-.671-1.26-2.679-2.604-6.752-2.604-4.074 0-6.08 1.344-6.753 2.604h-4.764c-.543 0-.983.439-.983.98 0 6.034 3.793 8.575 6.842 10.618 2.49 1.669 4.018 2.796 4.018 4.834v1.842c-2.617.292-4.539 1.272-4.539 2.437 0 1.395 2.765 2.526 6.179 2.526 3.413 0 6.178-1.131 6.178-2.526 0-1.165-1.922-2.145-4.541-2.437v-1.842zm3.858-7.099c.789-1.686 1.412-3.972 1.511-7.366h3.487c-.332 3.79-2.586 5.705-4.998 7.366zm-5.495-10.216c3.793-.003 5.276 1.567 5.274 2.149 0 .586-1.481 2.152-5.274 2.156-3.796-.004-5.275-1.57-5.275-2.156-.002-.582 1.481-2.152 5.275-2.149zm-10.492 2.85h3.485c.099 3.394.722 5.68 1.511 7.366-2.41-1.661-4.666-3.576-4.996-7.366zm0 0" fill="#206FAC" sketch:type="MSShapeGroup"/><path d="M17.637 102.222c0-2.038 1.529-3.165 4.022-4.834 3.047-2.043 6.841-4.584 6.841-10.618 0-.541-.441-.98-.984-.98h-4.764c-.671-1.26-2.679-2.604-6.752-2.604-4.074 0-6.08 1.344-6.753 2.604h-4.764c-.543 0-.983.439-.983.98 0 6.034 3.793 8.575 6.842 10.618 2.49 1.669 4.018 2.796 4.018 4.834v1.842c-2.617.292-4.539 1.272-4.539 2.437 0 1.395 2.765 2.526 6.179 2.526 3.413 0 6.178-1.131 6.178-2.526 0-1.165-1.922-2.145-4.541-2.437v-1.842zm3.858-7.099c.789-1.686 1.412-3.972 1.511-7.366h3.487c-.332 3.79-2.586 5.705-4.998 7.366zm-5.495-10.216c3.793-.003 5.276 1.567 5.274 2.149 0 .586-1.481 2.152-5.274 2.156-3.796-.004-5.275-1.57-5.275-2.156-.002-.582 1.481-2.152 5.275-2.149zm-10.492 2.85h3.485c.099 3.394.722 5.68 1.511 7.366-2.41-1.661-4.666-3.576-4.996-7.366zm0 0" fill="#fff" sketch:type="MSShapeGroup"/><path d="M17.637 62.222c0-2.038 1.529-3.165 4.022-4.834 3.047-2.043 6.841-4.584 6.841-10.618 0-.541-.441-.98-.984-.98h-4.764c-.671-1.26-2.679-2.604-6.752-2.604-4.074 0-6.08 1.344-6.753 2.604h-4.764c-.543 0-.983.439-.983.98 0 6.034 3.793 8.575 6.842 10.618 2.49 1.669 4.018 2.796 4.018 4.834v1.842c-2.617.292-4.539 1.272-4.539 2.437 0 1.395 2.765 2.526 6.179 2.526 3.413 0 6.178-1.131 6.178-2.526 0-1.165-1.922-2.145-4.541-2.437v-1.842zm3.858-7.099c.789-1.686 1.412-3.972 1.511-7.366h3.487c-.332 3.79-2.586 5.705-4.998 7.366zm-5.495-10.216c3.793-.003 5.276 1.567 5.274 2.149 0 .586-1.481 2.152-5.274 2.156-3.796-.004-5.275-1.57-5.275-2.156-.002-.582 1.481-2.152 5.275-2.149zm-10.492 2.85h3.485c.099 3.394.722 5.68 1.511 7.366-2.41-1.661-4.666-3.576-4.996-7.366zm0 0" fill="#67737B" sketch:type="MSShapeGroup"/><path d="M17.637 22.222c0-2.038 1.529-3.165 4.022-4.834 3.047-2.043 6.841-4.584 6.841-10.618 0-.541-.441-.98-.984-.98h-4.764c-.671-1.26-2.679-2.604-6.752-2.604-4.074 0-6.08 1.344-6.753 2.604h-4.764c-.543 0-.983.439-.983.98 0 6.034 3.793 8.575 6.842 10.618 2.49 1.669 4.018 2.796 4.018 4.834v1.842c-2.617.292-4.539 1.272-4.539 2.437 0 1.395 2.765 2.526 6.179 2.526 3.413 0 6.178-1.131 6.178-2.526 0-1.165-1.922-2.145-4.541-2.437v-1.842zm3.858-7.099c.789-1.686 1.412-3.972 1.511-7.366h3.487c-.332 3.79-2.586 5.705-4.998 7.366zm-5.495-10.216c3.793-.003 5.276 1.567 5.274 2.149 0 .586-1.481 2.152-5.274 2.156-3.796-.004-5.275-1.57-5.275-2.156-.002-.582 1.481-2.152 5.275-2.149zm-10.492 2.85h3.485c.099 3.394.722 5.68 1.511 7.366-2.41-1.661-4.666-3.576-4.996-7.366zm0 0" fill="#3A434E" sketch:type="MSShapeGroup"/></g></svg>

<?xml version="1.0" encoding="UTF-8" standalone="no"?>
<svg width="32px" height="232px" viewBox="0 0 32 232" version="1.1" xmlns="http://www.w3.org/2000/svg" xmlns:xlink="http://www.w3.org/1999/xlink" xmlns:sketch="http://www.bohemiancoding.com/sketch/ns">
    <title>trophy</title>
    <description>Created with Sketch (http://www.bohemiancoding.com/sketch)</description>
    <defs></defs>
    <g id="Actions" stroke="none" stroke-width="1" fill="none" fill-rule="evenodd" sketch:type="MSPage">
        <path d="M17.637,142.222 C17.637,140.184 19.166,139.057 21.659,137.388 C24.706,135.345 28.5,132.804 28.5,126.77 C28.5,126.229 28.059,125.79 27.516,125.79 L22.752,125.79 C22.081,124.53 20.073,123.186 16,123.186 C11.926,123.186 9.92,124.53 9.247,125.79 L4.483,125.79 C3.94,125.79 3.5,126.229 3.5,126.77 C3.5,132.804 7.293,135.345 10.342,137.388 C12.832,139.057 14.36,140.184 14.36,142.222 L14.36,144.064 C11.743,144.356 9.821,145.336 9.821,146.501 C9.821,147.896 12.586,149.027 16,149.027 C19.413,149.027 22.178,147.896 22.178,146.501 C22.178,145.336 20.256,144.356 17.637,144.064 L17.637,142.222 L17.637,142.222 L17.637,142.222 L17.637,142.222 Z M21.495,135.123 C22.284,133.437 22.907,131.151 23.006,127.757 L26.493,127.757 C26.161,131.547 23.907,133.462 21.495,135.123 C21.495,135.123 23.907,133.462 21.495,135.123 L21.495,135.123 L21.495,135.123 Z M16,124.907 C19.793,124.904 21.276,126.474 21.274,127.056 C21.274,127.642 19.793,129.208 16,129.212 C12.204,129.208 10.725,127.642 10.725,127.056 C10.723,126.474 12.206,124.904 16,124.907 C16,124.907 12.206,124.904 16,124.907 L16,124.907 L16,124.907 Z M5.508,127.757 L8.993,127.757 C9.092,131.151 9.715,133.437 10.504,135.123 C8.094,133.462 5.838,131.547 5.508,127.757 L5.508,127.757 Z M5.508,127.757" id="trophy--lp-blue" fill="#206FAC" sketch:type="MSShapeGroup"></path>
        <path d="M17.637,102.222 C17.637,100.184 19.166,99.057 21.659,97.388 C24.706,95.345 28.5,92.804 28.5,86.77 C28.5,86.229 28.059,85.79 27.516,85.79 L22.752,85.79 C22.081,84.53 20.073,83.186 16,83.186 C11.926,83.186 9.92,84.53 9.247,85.79 L4.483,85.79 C3.94,85.79 3.5,86.229 3.5,86.77 C3.5,92.804 7.293,95.345 10.342,97.388 C12.832,99.057 14.36,100.184 14.36,102.222 L14.36,104.064 C11.743,104.356 9.821,105.336 9.821,106.501 C9.821,107.896 12.586,109.027 16,109.027 C19.413,109.027 22.178,107.896 22.178,106.501 C22.178,105.336 20.256,104.356 17.637,104.064 L17.637,102.222 L17.637,102.222 L17.637,102.222 L17.637,102.222 Z M21.495,95.123 C22.284,93.437 22.907,91.151 23.006,87.757 L26.493,87.757 C26.161,91.547 23.907,93.462 21.495,95.123 C21.495,95.123 23.907,93.462 21.495,95.123 L21.495,95.123 L21.495,95.123 Z M16,84.907 C19.793,84.904 21.276,86.474 21.274,87.056 C21.274,87.642 19.793,89.208 16,89.212 C12.204,89.208 10.725,87.642 10.725,87.056 C10.723,86.474 12.206,84.904 16,84.907 C16,84.907 12.206,84.904 16,84.907 L16,84.907 L16,84.907 Z M5.508,87.757 L8.993,87.757 C9.092,91.151 9.715,93.437 10.504,95.123 C8.094,93.462 5.838,91.547 5.508,87.757 L5.508,87.757 Z M5.508,87.757" id="trophy--white" fill="#FFFFFF" sketch:type="MSShapeGroup"></path>
        <path d="M17.637,62.222 C17.637,60.184 19.166,59.057 21.659,57.388 C24.706,55.345 28.5,52.804 28.5,46.77 C28.5,46.229 28.059,45.79 27.516,45.79 L22.752,45.79 C22.081,44.53 20.073,43.186 16,43.186 C11.926,43.186 9.92,44.53 9.247,45.79 L4.483,45.79 C3.94,45.79 3.5,46.229 3.5,46.77 C3.5,52.804 7.293,55.345 10.342,57.388 C12.832,59.057 14.36,60.184 14.36,62.222 L14.36,64.064 C11.743,64.356 9.821,65.336 9.821,66.501 C9.821,67.896 12.586,69.027 16,69.027 C19.413,69.027 22.178,67.896 22.178,66.501 C22.178,65.336 20.256,64.356 17.637,64.064 L17.637,62.222 L17.637,62.222 L17.637,62.222 L17.637,62.222 Z M21.495,55.123 C22.284,53.437 22.907,51.151 23.006,47.757 L26.493,47.757 C26.161,51.547 23.907,53.462 21.495,55.123 C21.495,55.123 23.907,53.462 21.495,55.123 L21.495,55.123 L21.495,55.123 Z M16,44.907 C19.793,44.904 21.276,46.474 21.274,47.056 C21.274,47.642 19.793,49.208 16,49.212 C12.204,49.208 10.725,47.642 10.725,47.056 C10.723,46.474 12.206,44.904 16,44.907 C16,44.907 12.206,44.904 16,44.907 L16,44.907 L16,44.907 Z M5.508,47.757 L8.993,47.757 C9.092,51.151 9.715,53.437 10.504,55.123 C8.094,53.462 5.838,51.547 5.508,47.757 L5.508,47.757 Z M5.508,47.757" id="trophy--body-grey" fill="#67737B" sketch:type="MSShapeGroup"></path>
        <path d="M17.637,22.222 C17.637,20.184 19.166,19.057 21.659,17.388 C24.706,15.345 28.5,12.804 28.5,6.77 C28.5,6.229 28.059,5.79 27.516,5.79 L22.752,5.79 C22.081,4.53 20.073,3.186 16,3.186 C11.926,3.186 9.92,4.53 9.247,5.79 L4.483,5.79 C3.94,5.79 3.5,6.229 3.5,6.77 C3.5,12.804 7.293,15.345 10.342,17.388 C12.832,19.057 14.36,20.184 14.36,22.222 L14.36,24.064 C11.743,24.356 9.821,25.336 9.821,26.501 C9.821,27.896 12.586,29.027 16,29.027 C19.413,29.027 22.178,27.896 22.178,26.501 C22.178,25.336 20.256,24.356 17.637,24.064 L17.637,22.222 L17.637,22.222 L17.637,22.222 L17.637,22.222 Z M21.495,15.123 C22.284,13.437 22.907,11.151 23.006,7.757 L26.493,7.757 C26.161,11.547 23.907,13.462 21.495,15.123 C21.495,15.123 23.907,13.462 21.495,15.123 L21.495,15.123 L21.495,15.123 Z M16,4.907 C19.793,4.904 21.276,6.474 21.274,7.056 C21.274,7.642 19.793,9.208 16,9.212 C12.204,9.208 10.725,7.642 10.725,7.056 C10.723,6.474 12.206,4.904 16,4.907 C16,4.907 12.206,4.904 16,4.907 L16,4.907 L16,4.907 Z M5.508,7.757 L8.993,7.757 C9.092,11.151 9.715,13.437 10.504,15.123 C8.094,13.462 5.838,11.547 5.508,7.757 L5.508,7.757 Z M5.508,7.757" id="trophy--title-grey" fill="#3A434E" sketch:type="MSShapeGroup"></path>
    </g>
</svg>
